source/svgs/bowtie/uE961-heartbeat.svg

<svg xmlns="http://www.w3.org/2000/svg" viewBox="0 0 448 448"><path d="M352 288h2.762l-130.762 127.578-189.844-185.22c-1.97-1.97-3.422-4.278-5.232-6.358h27.446l70.692-77.57 96.453 87.43 64.485-64.485 54.625 54.625h31.914l16.96-16.547c15.75-15.75 24.5-36.875 24.5-59.344 0-22.457-8.75-43.58-24.64-59.47-31.8-31.78-87.19-31.78-118.957 0l-48.402 52.221-48.828-52.657c-15.47-15.453-36.594-24.203-59.062-24.203-22.454 0-43.58 8.75-59.47 24.64s-24.64 37.017-24.64 59.47c0 15.778 4.537 30.784 12.61 43.89h-35.99c-5.625-13.766-8.62-28.592-8.62-43.89 0-31.017 12.078-60.173 34.016-82.095 43.844-43.875 120.328-43.875 164.203 0l25.781 27.782 25.36-27.344c44.718-44.75 120.78-44.313 164.624-.438 21.938 21.923 34.016 51.08 34.016 82.095s-12.078 60.17-34.016 82.108l-26.424 25.782h-58.185l-41.375-41.375-63.516 63.516-95.547-87.574-42.525 46.074 137.588 134.219 84.936-82.86h43.064z"/></svg>

<svg xmlns="http://www.w3.org/2000/svg" viewBox="0 0 448 448"><path d="M352 288h2.762L224 415.578 34.156 230.358c-1.97-1.97-3.422-4.278-5.232-6.358H56.37l70.692-77.57 96.453 87.43L288 169.375 342.625 224h31.914l16.96-16.547c15.75-15.75 24.5-36.875 24.5-59.344 0-22.457-8.75-43.58-24.64-59.47-31.8-31.78-87.19-31.78-118.957 0L224 140.86l-48.828-52.657C159.702 72.75 138.578 64 116.11 64c-22.454 0-43.58 8.75-59.47 24.64S32 125.657 32 148.11c0 15.778 4.537 30.784 12.61 43.89H8.62A115.771 115.771 0 0 1 0 148.11c0-31.017 12.078-60.173 34.016-82.095 43.844-43.875 120.328-43.875 164.203 0L224 93.797l25.36-27.344c44.718-44.75 120.78-44.313 164.624-.438C435.922 87.938 448 117.095 448 148.11s-12.078 60.17-34.016 82.108L387.56 256h-58.185L288 214.625l-63.516 63.516-95.547-87.574-42.525 46.074L224 370.86 308.936 288H352z"/></svg>
